!!!ONB: MCCC : ILB0173_03 : Extracted Monophonic Melody
!!!COM: Beethoven, Ludwig van
!!!OPR: Piano Sonata No.12
!!!OMV: 3
!!!SCT: Op.26
!!!ODT: 1800///
**kern
*thru
*staff1
*>A
*clefG2
*k[b-e-a-d-g-c-f-]
*a-:
*M4/4
*MM52
8.e-
16e-
=1
4e-
8.e-
16e-
8.e-
16e-
8.e-
16e-
=2
2.e-
8.e-
16e-
=3
4e-
8.e-
16e-
4e-
8.e-
16e-
=4
4e-
4e-
4e-
8.e-
16e-
=5
4e-
8.e-
16e-
8.e-
16e-
8.e-
16e-
=6
2.e-
8.e-
16e-
=7
4e-
8.d-
16d-
4d-
8.d-
16d-
=8
4c-
4c-
4c-
8.f#
16f#
=9
4f#
8.f#
16f#
8.f#
16f#
8.f#
16f#
=10
2.f#
8.f#
16c#
=11
4f#
8.f#
16f#
4f#
8.f#
16f#
=12
4f#
4f#
4f#
8.f#
16f#
=13
4f#
8.f#
16f#
8.f#
16f#
8.e
16f#
=14
2.g
8.g
16g
=15
4f#
8.f#
16f#
4e
8.a
16a
=16
4d
4d
4d
8.cc-
16cc-
=17
2cc-
4b-
4a-
=18
8.g
16cc-
2cc-
8.b-
16a-
=19
8.g
16cc-
8.cc-
16cc-
8.cc-
16cc-
8.b-
16a-
=20
4g
2f-
16e-
16d-
16c-
16B-
=21
4r
8.e-
16e-
8.e-
16e-
8.e-
16e-
=22
2.e-
8.e-
16e-
=23
4e-
8.e-
16e-
4e-
8.e-
16e-
=24
4e-
4e-
4e-
8.e-
16e-
=25
4e-
8.e-
16e-
8.e-
16e-
8.d-
16e-
=26
2.f-
4f-
=27
2.dd-
4dd-
=28
2.bb-
4bb-
=29
4ccc-
4r
4bb-
4gg
=30
4aa-
4r
4r
4r
=31
*>B
*k[b-e-a-d-]
4r
4r
8r
16r
16cc
8ee-
8r
=32
4r
4r
8r
16r
16ccc
8eee-
8r
=33
8B-
16r
16gg
8bb-
8r
8B-
16r
16ff
8bb-
16r
16b-
=34
8ee-
16r
16B-
8e-
16r
16BB-
8E-
8r
4r
=35
*>B
4r
4r
8r
16r
16cc
8ee-
8r
=36
4r
4r
8r
16r
16ccc
8eee-
8r
=37
8B-
16r
16gg
8bb-
8r
8B-
16r
16ff
8bb-
16r
16b-
=38
8ee-
16r
16B-
8e-
16r
16BB-
8E-
8r
4r
=39
*>C
32d-
32B-
32d-
32B-
32d-
32B-
32d-
32B-
32d-
32B-
32d-
32B-
32d-
32B-
32d-
32B-
8B-
16r
16b-
8dd-
8r
=40
32d-
32B-
32d-
32B-
32d-
32B-
32d-
32B-
32d-
32B-
32d-
32B-
32d-
32B-
32d-
32B-
8B-
16r
16bb-
8ddd-
8r
=41
8a-
16r
16ccc
8eee-
8r
8e-
16r
16bb-
8eee-
16r
16ee-
=42
*>C1
8aa-
16r
16e-
8a-
16r
16E-
8A-
8r
4r
=43
*>C
32d-
32B-
32d-
32B-
32d-
32B-
32d-
32B-
32d-
32B-
32d-
32B-
32d-
32B-
32d-
32B-
8B-
16r
16b-
8dd-
8r
=44
32d-
32B-
32d-
32B-
32d-
32B-
32d-
32B-
32d-
32B-
32d-
32B-
32d-
32B-
32d-
32B-
8B-
16r
16bb-
8ddd-
8r
=45
8a-
16r
16ccc
8eee-
8r
8e-
16r
16bb-
8eee-
16r
16ee-
=46
*>C2
8aa-
16r
16e-
8a-
16r
16E-
8A-
8r
8.e-
16e-
=47
*>D
*k[b-e-a-d-g-c-f-]
4e-
8.e-
16e-
8.e-
16e-
8.e-
16e-
=48
2.e-
8.e-
16e-
=49
4e-
8.e-
16e-
4e-
8.e-
16e-
=50
4e-
4e-
4e-
8.e-
16e-
=51
4e-
8.e-
16e-
8.e-
16e-
8.e-
16e-
=52
2.e-
8.e-
16e-
=53
4e-
8.d-
16d-
4d-
8.d-
16d-
=54
2.r
8.f#
16f#
=55
4f#
8.f#
16f#
8.f#
16f#
8.f#
16f#
=56
2.f#
8.f#
16f#
=57
4f#
8.f#
16f#
4f#
8.f#
16f#
=58
4f#
4f#
4f#
8.f#
16f#
=59
4f#
8.f#
16f#
8.f#
16f#
8.e
16f#
=60
2.g
8.g
16g
=61
4f#
8.f#
16f#
4e
8.a
16a
=62
4d
4d
4d
8.cc-
16cc-
=63
2cc-
4b-
4a-
=64
8.g
16cc-
2cc-
8.b-
16a-
=65
8.g
16cc-
8.cc-
16cc-
8.cc-
16cc-
8.b-
16a-
=66
4g
2f-
16e-
16d-
16c-
16B-
=67
4A-
8.e-
16e-
8.e-
16e-
8.e-
16e-
=68
2.e-
8.e-
16e-
=69
4e-
8.e-
16e-
4e-
8.e-
16e-
=70
4e-
4e-
4e-
8.e-
16e-
=71
4e-
8.e-
16e-
8.e-
16e-
8.d-
16e-
=72
2.f-
4f-
=73
2.dd-
4dd-
=74
2.bb-
4bb-
=75
4ccc-
4r
4bb-
4gg
=76
4aa-
4r
4r
8.b--
16a-
=77
4..g-
16f-
4e-
4e-
=78
4e-
4r
4r
8.cc
16dd-
=79
4..ee-
16ff-
4gg-
4gg-
=80
2aa-
4..bb--
16gg
=81
4aa-
4r
4..b--
16g
=82
4a-
4r
4e-
4e-
=83
2.e-
4r
==
*-
